X: 3
T: The Sligo Maid
R: reel
M: 4/4
L: 1/8
K: Ador
G|A2BA (3B^cd ef |gedB AGEF|G2BG dGBG|DEGA BAGB|
A2BA (3B^cd ef |gedB AGEG|B2GB ABGE|DEGA BAA:|
z|eaag a2ga|b2gb abge|dggf g3e|dega b2ag|
eaag a2ga|b2gb abge|dg~g2 edBd|efgd BAA:|

